X:1
T:There Is No Name So Sweet on Earth
T:There Is No Name So Sweet on Earth
T:William Batchelder Bradbury, 1861
T:George Washington Bethune, 1858
T:Public Domain Courtesy of the Cyber Hymnal™
C:William Batchelder Bradbury, 1861
Z:Public Domain
Z:Courtesy of the Cyber Hymnal™
%%score ( 1 2 ) ( 3 4 )
L:1/8
Q:1/4=106
M:3/4
K:F
V:1 treble 
V:2 treble 
V:3 bass 
V:4 bass 
V:1
 C2 | [A,F][A,F] [CA]2 [CF]2 | [B,D][B,D] [DF]2 [B,D]2 | C[CF] [CA]2 F2 | [FA]2 [EG]2 C2 | %5
w: 1.~There|is no name so|sweet on earth, No|name so sweet in|Heav- en, The|
w: 2.~And|when He hung up-|on the tree, They|wrote this name a-|bove Him; That|
w: 3.~So|now, up- on His|Fa- ther’s throne, Al-|might- y to re-|lease us From|
w: 4.~O|Je- sus, by that|match- less name, Thy|grace shall fail us|nev- er; To-|
 [A,F][A,F] [CA]2 [CF]2 | [B,D][B,D] [DF]2 [B,D]2 | C[B,F] [CA]2 [A,F]2 | [B,G]2 !fermata![A,F]2 || %9
w: name, be- fore His|won- drous birth To|Christ the Sav- ior|giv- en.|
w: all might see the|rea- son we For-|ev- er- more must|love Him.|
w: sin and pain, He|glad- ly reigns, The|Prince and Sav- ior,|Je- sus.|
w: day as yes- ter-|day the same, Thou|art the same for-|ev- er.|
"^Refrain" [Fc]2 | [Fd][Fd] [Fd]2 [Fd]2 | [Fc][FA] [Fc]2 [Fc]2 | [Fd][Fd] [Fc]2 [FA]2 | %13
w: ||||
w: ||||
w: ||||
w: ||||
 [FA]2 [EG]2 C2 | [A,F][A,F] [CA]2 [CF]2 | [B,D][B,D] [DF]2 [B,D]2 | C[CF] [CA]2 [A,F]2 | %17
w: ||||
w: ||||
w: ||||
w: ||||
 [B,G]2 !fermata![A,F]2 |] %18
w: |
w: |
w: |
w: |
V:2
 C2 | x6 | x6 | C x2 F2 x | x4 C2 | x6 | x6 | C x5 | x4 || x2 | x6 | x6 | x6 | x4 C2 | x6 | x6 | %16
 C x5 | x4 |] %18
V:3
 C,2 | [F,,F,][F,,F,] [F,,F,]2 [A,,F,]2 | [B,,F,][B,,F,] [B,,F,]2 [B,,F,]2 | %3
w: ~|~ ~ ~ ~|~ ~ ~ ~|
 [A,,F,][A,,F,] [F,,F,]2 [F,,A,]2 | [C,C]2 [C,C]2 C,2 | [F,,F,][F,,F,] [F,,F,]2 [A,,F,]2 | %6
w: ~ ~ ~ ~|~ ~ ~|~ ~ ~ ~|
 [B,,F,][B,,F,] [B,,F,]2 [B,,F,]2 | [A,,F,][D,F,] [C,F,]2 [C,F,]2 | [C,E,]2 !fermata![F,,F,]2 || %9
w: ~ ~ ~ ~|~ ~ ~ ~|~ ~|
 [F,A,]2 | [B,,B,][B,,B,] [B,,B,]2 [B,,B,]2 | [F,A,][F,C] [F,A,]2 [F,A,]2 | %12
w: We|love to sing of|Christ our king, And|
 [B,,B,][D,B,] [F,A,]2 [F,C]2 | [C,C]2 [C,C]2 C,2 | [F,,F,][F,,F,] [F,,F,]2 [A,,F,]2 | %15
w: hail Him, bless- èd|Je- sus; For|there’s no word ear|
 [B,,F,][B,,F,] [B,,F,]2 [B,,F,]2 | [A,,F,][A,,F,] [F,,F,]2 [D,F,]2 | [C,E,]2 [F,,F,]2 |] %18
w: ev- er heard So|dear, so sweet as|“Je- sus.”|
V:4
 C,2 | x6 | x6 | x6 | x4 C,2 | x6 | x6 | x6 | x4 || x2 | x6 | x6 | x6 | x4 C,2 | x6 | x6 | x6 | %17
 x4 |] %18

